X: 43254
T: Woman Of The House, The
R: reel
M: 4/4
K: Gmajor
|:DGBG cABA|GBdg e2dB|GABG A2(3Bcd|e~A2 eAcA|
DGBG cABA|GBdg e2dB|GABG A2GB|dBAd BGG2:|
|:gfeg fedf|efge dcBA|GABG A2(3Bcd|e~A2 eAcA|
gzeg fedz|efge dcBA|GABG A2 GB|dBAd BGG2:|

